X: 20012
T: Jimmy Allen
R: polka
M: 2/4
K: Gmajor
|:BG GA|Bc/B/ GA/B/|cA AB|cd/c/ BA|
Bg ge|de/d/ BB/c/|dd cB/A/|G2 G>A:|
|:Bg gf|ed cc/B/|Aa a>g|fd ef|
g>a ge|de/d/ BB/c/|dd cB/A/|G2 G>A:|

